packages/core/src/svgs/tokens/mono/MVI.svg

<svg width="24" height="24" viewBox="0 0 24 24" fill="none" xmlns="http://www.w3.org/2000/svg">
<path d="M17.4546 2C17.2157 2 16.9793 2.04702 16.7587 2.13839C16.5381 2.22977 16.3377 2.36369 16.1688 2.53252C16 2.70136 15.8661 2.9018 15.7747 3.12239C15.6834 3.34298 15.6363 3.57941 15.6363 3.81818C15.6363 4.05694 15.6834 4.29337 15.7747 4.51396C15.8661 4.73456 16 4.935 16.1688 5.10383C16.3377 5.27267 16.5381 5.40659 16.7587 5.49797C16.9793 5.58934 17.2157 5.63636 17.4546 5.63636C17.6933 5.63636 17.9297 5.58934 18.1503 5.49797C18.3709 5.40659 18.5713 5.27267 18.7402 5.10383C18.909 4.935 19.0429 4.73456 19.1343 4.51396C19.2256 4.29337 19.2727 4.05694 19.2727 3.81818C19.2727 3.57941 19.2256 3.34298 19.1343 3.12239C19.0429 2.9018 18.909 2.70136 18.7402 2.53252C18.5713 2.36369 18.3709 2.22977 18.1503 2.13839C17.9297 2.04702 17.6933 2 17.4546 2ZM4.59389 10.1819C4.59389 9.35152 7.90904 8.66667 11.9999 8.66667C16.0909 8.66667 19.4061 9.35152 19.4061 10.1819C19.4061 11.0182 15.6969 11.697 11.9999 11.697C8.29086 11.697 4.59389 11.0303 4.59389 10.1819ZM2.30298 10.4849C2.30298 10.4849 2.30298 12.909 11.9999 12.909C21.697 12.909 21.697 10.4849 21.697 10.4849C21.697 12.9697 19.4061 18.2061 17.9878 19.103C17.2606 19.5637 17.0484 18.7516 16.8241 17.8727C16.612 17.0485 16.3818 16.1698 15.6969 16.2122C14.994 16.2606 14.4242 17.6849 13.8544 19.1151C13.2788 20.5576 12.7031 22 11.9999 22C11.297 22 10.7272 20.5454 10.1576 19.103C9.57568 17.6364 9.00602 16.1757 8.29086 16.2181C7.61813 16.2666 7.38177 17.1273 7.17571 17.9273C6.9454 18.794 6.73934 19.5818 5.99994 19.1091C4.59994 18.2121 2.30298 12.9819 2.30298 10.4849Z" fill="white"/>
</svg>

<svg xmlns="http://www.w3.org/2000/svg" width="24" height="24" fill="none" viewBox="0 0 24 24">
    <path fill="#fff" d="M17.455 2a1.818 1.818 0 1 0 0 3.637 1.818 1.818 0 0 0 0-3.637M4.594 10.182c0-.83 3.315-1.515 7.406-1.515s7.406.685 7.406 1.515c0 .836-3.71 1.515-7.406 1.515-3.71 0-7.406-.667-7.406-1.515m-2.291.303s0 2.424 9.697 2.424 9.697-2.424 9.697-2.424c0 2.485-2.29 7.721-3.71 8.618-.726.46-.939-.351-1.163-1.23-.212-.825-.442-1.703-1.127-1.66-.703.048-1.273 1.472-1.843 2.902C13.28 20.558 12.704 22 12 22c-.703 0-1.273-1.455-1.842-2.897-.582-1.467-1.152-2.927-1.867-2.885-.673.049-.91.91-1.115 1.71-.23.866-.437 1.654-1.176 1.181-1.4-.897-3.697-6.127-3.697-8.624"/>
</svg>
